papirus/16x16/apps/tomahawk.svg

<svg height="16" width="16" xmlns="http://www.w3.org/2000/svg" xmlns:xlink="http://www.w3.org/1999/xlink"><clipPath id="a"><circle cx="286" cy="26" r="10"/></clipPath><path d="m8 0a8 8 0 0 0 -8 8 8 8 0 0 0  8 8 8 8 0 0 0  8-8 8 8 0 0 0 -8-8z" fill="#e74c3c"/><circle clip-path="url(#a)" cx="286" cy="26" opacity="0" r="10" stroke-width=".45455" transform="matrix(1.4 0 0 1.4 -384.4 -36.4)"/><circle clip-path="url(#a)" cx="286" cy="26" opacity="0" r="10" stroke-width=".90908998" transform="matrix(1.4 0 0 1.4 -384.4 -36.4)"/><path d="m8 2c-3.3137085 0-6 2.6862915-6 6 0 3.313708 2.6862915 6 6 6 .6816864-.0021 1.3580344-.120304 2-.349609v-5.150391l-2.5 1.75-2.5 1.75v-3.5-3.5l2.5 1.75 2.5 1.75v-2.5h2v6.462891c1.270203-1.1361 1.997372-2.7587395 2-4.462891 0-3.3137085-2.686292-6-6-6z" fill="#fff"/></svg>

<?xml version="1.0" encoding="UTF-8" standalone="no"?>
<!-- Created with Inkscape (http://www.inkscape.org/) -->

<svg
   xmlns:dc="http://purl.org/dc/elements/1.1/"
   xmlns:cc="http://creativecommons.org/ns#"
   xmlns:rdf="http://www.w3.org/1999/02/22-rdf-syntax-ns#"
   xmlns:svg="http://www.w3.org/2000/svg"
   xmlns="http://www.w3.org/2000/svg"
   xmlns:sodipodi="http://sodipodi.sourceforge.net/DTD/sodipodi-0.dtd"
   xmlns:inkscape="http://www.inkscape.org/namespaces/inkscape"
   id="svg2817"
   height="16"
   width="16"
   version="1.0"
   inkscape:version="0.91 r13725"
   sodipodi:docname="tomahawk.svg">
  <sodipodi:namedview
     pagecolor="#ffffff"
     bordercolor="#666666"
     borderopacity="1"
     objecttolerance="10"
     gridtolerance="10"
     guidetolerance="10"
     inkscape:pageopacity="0"
     inkscape:pageshadow="2"
     inkscape:window-width="1600"
     inkscape:window-height="847"
     id="namedview12"
     showgrid="false"
     inkscape:zoom="21.31"
     inkscape:cx="-4.1061749"
     inkscape:cy="6.6147349"
     inkscape:window-x="0"
     inkscape:window-y="0"
     inkscape:window-maximized="1"
     inkscape:current-layer="svg2817" />
  <metadata
     id="metadata57">
    <rdf:RDF>
      <cc:Work
         rdf:about="">
        <dc:format>image/svg+xml</dc:format>
        <dc:type
           rdf:resource="http://purl.org/dc/dcmitype/StillImage" />
        <dc:title />
      </cc:Work>
    </rdf:RDF>
  </metadata>
  <defs
     id="defs2819">
    <clipPath
       id="clipPath4186-8"
       clipPathUnits="userSpaceOnUse">
      <circle
         id="path4188-1"
         style="color:#000000;fill:url(#linearGradient4190)"
         cx="286"
         cy="26"
         r="10" />
    </clipPath>
  </defs>
  <path
     style="color:#000000;fill:#e74c3c;fill-opacity:1"
     d="M 8,0 A 8,8 0 0 0 0,8 8,8 0 0 0 8,16 8,8 0 0 0 16,8 8,8 0 0 0 8,0 Z"
     id="path4142"
     inkscape:connector-curvature="0" />
  <circle
     id="path4240-4"
     style="color:#000000;opacity:0;stroke-width:0.45455"
     clip-path="url(#clipPath4186-8)"
     cx="286"
     transform="matrix(1.4,0,0,1.4,-384.4,-36.4)"
     cy="26"
     r="10" />
  <circle
     id="path4242-5"
     style="color:#000000;opacity:0;stroke-width:0.90908998"
     clip-path="url(#clipPath4186-8)"
     cx="286"
     transform="matrix(1.4,0,0,1.4,-384.4,-36.4)"
     cy="26"
     r="10" />
  <path
     style="opacity:1;fill:#ffffff;fill-opacity:1;stroke:none;stroke-width:1;stroke-linecap:round;stroke-linejoin:round;stroke-miterlimit:4;stroke-dasharray:none;stroke-opacity:1"
     d="M 8,2 C 4.6862915,2 2,4.6862915 2,8 c 0,3.313708 2.6862915,6 6,6 0.6816864,-0.0021 1.3580344,-0.120304 2,-0.349609 L 10,8.5 7.5,10.25 5,12 5,8.5 5,5 7.5,6.75 10,8.5 10,6 l 2,0 0,6.462891 C 13.270203,11.326791 13.997372,9.7041515 14,8 14,4.6862915 11.313708,2 8,2 Z"
     id="path4141"
     inkscape:connector-curvature="0"
     sodipodi:nodetypes="sscccccccccccccs" />
</svg>
